X: 20661
T: John Towey's
R: barndance
M: 4/4
K: Gmajor
d2GG ABG2|dedB A2G2|d2GG dedB|1 AGGD G2AB:|2 AGGD G2(3ABc||
d2(3Bcd g2ge|d2BG ABG2|d2GG dedB|AGGD G2(3ABc|
d2(3Bcd g2ge|d2BG ABG2|d2GG dedB|AGGD G2AB||

